X: 284
T: Princess of Wales's fancy
N: There are two tunes numbered 283 in this collection.
%R: reel
Z: 2014 John Chambers <jc:trillian.mit.edu>
B: Preston "Twenty four Country Dances for the Year 1796" p.122 #1
F: http://www.vwml.org/browse/browse-collections-dance-tune-books/browse-prestons1796# 2014-8-10
M: C
L: 1/8
K: C
g |\
egcg egcg | agdf agdf |\
egde cdcA | Gcdg (ec)c :|
|: c |\
AcGc (Ac)G2 | (Tdcd).e (ag)(ec) |\
AcGc (Ac)G2 | (dcd).g (ec) c :|
% - - - - - - - - - - - - - - - - - - - - - - - - -
%%begintext align
%% Sett & change sides & back again down
%% the middle up again right & left at top
%%endtext
% - - - - - - - - - - - - - - - - - - - - - - - - -

%%sep 1 1 500
%%sep 1 1 500
